astro/public/img/logo/fa_logo_white_orange.svg

<?xml version="1.0" encoding="UTF-8"?>
<svg width="200px" height="200px" viewBox="0 0 200 200" version="1.1" xmlns="http://www.w3.org/2000/svg" xmlns:xlink="http://www.w3.org/1999/xlink">
    <title>fa_logo_white_orange</title>
    <g id="fa_logo_white_orange" stroke="none" stroke-width="1" fill="none" fill-rule="evenodd">
        <g id="logo-white-only-copy" transform="translate(25.000000, 22.000000)" fill-rule="nonzero">
            <path d="M42.1484996,137.66991 C36.6833384,134.528952 31.6963641,130.62121 27.3395673,126.065783 C26.0759931,127.650679 24.5313734,128.98935 22.7829727,130.014831 C21.8172658,130.560079 20.7996702,131.007821 19.745243,131.351432 C43.3171444,157.092035 81.514904,163.202418 111.940339,146.09961 C113.379034,145.273539 114.266165,143.741199 114.266165,142.082212 C114.266165,140.423226 113.379034,138.890886 111.940339,138.064815 L111.940339,138.064815 C110.544127,137.227231 108.807093,137.19828 107.383745,137.988872 C87.1145338,149.434804 62.3048166,149.313499 42.1484996,137.66991 Z" id="Path" fill="#FFFFFF"></path>
            <path d="M42.1333109,23.8158008 C47.6002209,20.6627518 53.4933346,18.3147143 59.630634,16.8442112 C58.8680272,14.909435 58.4764302,12.8483979 58.4762967,10.7687518 C58.4791507,9.64672184 58.5910603,8.52762578 58.810447,7.42724912 C24.7434872,14.9918105 0.377235926,45.0279979 0,79.9226684 C0.00543281109,81.5804168 0.893430551,83.1097751 2.33044934,83.9362957 C3.76746812,84.7628163 5.53593485,84.7613592 6.97158966,83.9324716 L6.97158966,83.9324716 C8.38121575,83.1404765 9.26556465,81.6607816 9.29545288,80.0441776 C9.54382298,56.8175629 22.0258546,35.4445375 42.1333109,23.8158008 Z" id="Path" fill="#FFFFFF"></path>
            <path d="M140.722828,80.7428554 C140.720716,87.0525704 139.810183,93.3291152 138.019249,99.3793271 C140.061684,99.6786894 142.029781,100.358765 143.821313,101.384229 C144.782663,101.934288 145.692586,102.569709 146.540081,103.28281 C156.995816,69.9970709 143.153599,33.894052 113.125054,16.1303447 C111.686863,15.3769003 109.959746,15.4285699 108.569167,16.2666418 C107.178589,17.1047137 106.326144,18.6076906 106.32029,20.2312798 L106.32029,20.2312798 C106.303683,21.8447185 107.14136,23.346761 108.522894,24.1803284 C128.489516,36.0273698 140.728313,57.526086 140.722828,80.7428554 Z" id="Path" fill="#FFFFFF"></path>
            <path d="M75.0167349,49.4846131 C87.6608927,49.4784729 99.0634414,57.0904017 103.906409,68.7703173 C108.749376,80.4502329 106.078804,93.8974491 97.1402067,102.840392 C88.201609,111.783335 74.7556924,114.460443 63.0734243,109.623153 C51.3911563,104.785862 43.773685,93.3870146 43.773685,80.7428554 C43.7904148,63.4922697 57.7661594,49.5097309 75.0167349,49.4846131 M75.0167349,40.2043497 C52.627938,40.2043497 34.4782321,58.3540585 34.4782321,80.7428554 C34.4782321,103.131652 52.627938,121.281358 75.0167349,121.281358 C97.4055318,121.281358 115.555241,103.131652 115.555241,80.7428554 C115.559269,69.9901407 111.289555,59.6766717 103.686237,52.0733537 C96.0829187,44.4700357 85.7694496,40.2003216 75.0167349,40.2043497 Z" id="Shape" fill="#FFFFFF"></path>
            <circle id="Oval" fill="#F58320" cx="75.0015463" cy="10.8143177" r="10.8143177"></circle>
            <circle id="Oval" fill="#F58320" cx="14.4444047" cy="115.691936" r="10.8143177"></circle>
            <circle id="Oval" fill="#F58320" cx="135.558688" cy="115.691936" r="10.8143177"></circle>
            <path d="M83.9780918,73.3459836 C83.9840178,68.9845719 80.8491326,65.2522279 76.5522173,64.5049213 C72.255302,63.7576148 68.0443705,66.2123964 66.5774916,70.319733 C65.1106126,74.4270697 66.8138325,78.9940094 70.6120269,81.1377603 L67.7869382,95.4606558 C67.6945357,95.9128511 67.8127575,96.3825292 68.1082279,96.7370937 C68.4036983,97.0916582 68.8443581,97.2926379 69.3058031,97.2836056 L80.80361,97.2836056 C81.265055,97.2926379 81.7057148,97.0916582 82.0011852,96.7370937 C82.2966556,96.3825292 82.4148774,95.9128511 82.3224749,95.4606558 L79.4821976,81.1377603 C82.2726337,79.5376403 83.9892107,76.5626267 83.9780918,73.3459836 L83.9780918,73.3459836 Z" id="Path" fill="#F58320"></path>
        </g>
    </g>
</svg>

<svg xmlns="http://www.w3.org/2000/svg" width="200" height="200"><g fill="none" transform="translate(25 22)"><path fill="#FFF" d="M42.148 137.67a65.995 65.995 0 0 1-14.808-11.604 16.51 16.51 0 0 1-4.557 3.949c-.966.545-1.983.993-3.038 1.336 23.572 25.741 61.77 31.851 92.195 14.749a4.633 4.633 0 0 0 0-8.035 4.557 4.557 0 0 0-4.556-.076 65.767 65.767 0 0 1-65.236-.32Zm-.015-113.854a65.63 65.63 0 0 1 17.498-6.972 16.57 16.57 0 0 1-1.155-6.075c.003-1.122.115-2.241.334-3.342C24.743 14.992.377 45.028 0 79.923a4.648 4.648 0 0 0 6.972 4.01 4.557 4.557 0 0 0 2.323-3.889 65.767 65.767 0 0 1 32.838-56.228Zm98.59 56.927a65.736 65.736 0 0 1-2.704 18.636c2.043.3 4.01.98 5.802 2.005a18.47 18.47 0 0 1 2.72 1.899c10.455-33.286-3.387-69.389-33.416-87.153a4.648 4.648 0 0 0-6.805 4.101 4.557 4.557 0 0 0 2.203 3.95 65.752 65.752 0 0 1 32.2 56.562ZM75.017 49.485a31.258 31.258 0 1 1-31.243 31.258c.016-17.25 13.992-31.233 31.243-31.258m0-9.28c-22.39 0-40.539 18.15-40.539 40.538 0 22.389 18.15 40.538 40.539 40.538 22.389 0 40.538-18.15 40.538-40.538a40.523 40.523 0 0 0-40.538-40.539Z"/><circle cx="75.002" cy="10.814" r="10.814" fill="#F58320"/><circle cx="14.444" cy="115.692" r="10.814" fill="#F58320"/><circle cx="135.559" cy="115.692" r="10.814" fill="#F58320"/><path fill="#F58320" d="M83.978 73.346a8.961 8.961 0 1 0-13.366 7.792L67.787 95.46a1.519 1.519 0 0 0 1.519 1.823h11.498a1.52 1.52 0 0 0 1.518-1.823l-2.84-14.323a8.946 8.946 0 0 0 4.496-7.792Z"/></g></svg>
